components/Common/Svg/svgs/search.svg

<svg width="40" height="40" viewBox="0 0 40 40" fill="none" xmlns="http://www.w3.org/2000/svg">
<path fill-rule="evenodd" clip-rule="evenodd" d="M5.86392 17.9807C5.86392 11.2883 11.2895 5.86295 17.9825 5.86295C24.6754 5.86295 30.101 11.2883 30.101 17.9807C30.101 21.3063 28.7613 24.3191 26.592 26.5087C26.5774 26.522 26.5631 26.5357 26.549 26.5498C26.535 26.5638 26.5214 26.578 26.5082 26.5924C24.3187 28.7599 21.3069 30.0985 17.9825 30.0985C11.2895 30.0985 5.86392 24.6731 5.86392 17.9807ZM27.438 29.2974C24.8781 31.4384 21.5808 32.7271 17.9825 32.7271C9.83794 32.7271 3.23535 26.125 3.23535 17.9807C3.23535 9.83646 9.83794 3.23438 17.9825 3.23438C26.127 3.23438 32.7296 9.83646 32.7296 17.9807C32.7296 21.5804 31.4397 24.8788 29.297 27.4391L36.1796 34.3214C36.6929 34.8346 36.6929 35.6668 36.1797 36.1801C35.6664 36.6933 34.8343 36.6933 34.321 36.1801L27.438 29.2974Z" fill="#161616"/>
</svg>

<svg width="40" height="40" viewBox="0 0 40 40" fill="none" xmlns="http://www.w3.org/2000/svg"><path fill-rule="evenodd" clip-rule="evenodd" d="M5.864 17.98c0-6.692 5.426-12.117 12.119-12.117 6.692 0 12.118 5.425 12.118 12.118a12.079 12.079 0 0 1-3.593 8.611 12.08 12.08 0 0 1-8.525 3.507c-6.694 0-12.12-5.426-12.12-12.118Zm21.574 11.317a14.688 14.688 0 0 1-9.455 3.43c-8.145 0-14.748-6.602-14.748-14.746 0-8.145 6.603-14.747 14.748-14.747 8.144 0 14.747 6.602 14.747 14.747 0 3.6-1.29 6.898-3.433 9.458l6.883 6.882a1.314 1.314 0 1 1-1.859 1.86l-6.883-6.884Z" fill="#161616"/></svg>
